tools/download-figma-icons/icons/outlined-large/smarthome.svg

<svg width="64" height="64" viewBox="0 0 64 64" fill="none" xmlns="http://www.w3.org/2000/svg">
<path fill-rule="evenodd" clip-rule="evenodd" d="M31.8749 3.09862C31.9519 3.03162 32.0469 2.99962 32.1419 2.99962C32.2339 2.99962 32.3249 3.03062 32.3949 3.09162L44.1069 13.4386C44.5489 13.8296 45.1819 13.9246 45.7159 13.6816C46.2529 13.4386 46.5989 12.9026 46.5989 12.3126V9.42362H52.3509V20.0446C52.3509 20.4766 52.5359 20.8866 52.8589 21.1716L57.1299 24.9446C57.1329 24.9476 57.1359 24.9496 57.1389 24.9526C57.2269 25.0286 57.2779 25.1416 57.2779 25.2576V60.5916C57.2779 60.8126 57.0969 60.9946 56.8739 60.9946H7.40288C7.18088 60.9946 6.99988 60.8126 6.99988 60.5916V25.2576C6.99988 25.1406 7.04988 25.0286 7.14688 24.9446L31.8749 3.09862ZM7.40288 63.9996H56.8739C58.7509 63.9996 60.2779 62.4716 60.2779 60.5916V25.2576C60.2779 24.2706 59.8519 23.3346 59.1099 22.6866L55.3509 19.3666V7.92062C55.3509 7.09162 54.6789 6.41862 53.8509 6.41862H45.0989C44.2709 6.41862 43.5989 7.09162 43.5989 7.92062V8.98262L34.3709 0.830624C33.0979 -0.277376 31.1799 -0.278376 29.8989 0.837624L5.17088 22.6836C4.42688 23.3306 3.99988 24.2696 3.99988 25.2576V60.5916C3.99988 62.4716 5.52688 63.9996 7.40288 63.9996ZM48.5081 37.4537C48.1241 37.4537 47.7401 37.3067 47.4471 37.0137C39.0491 28.5997 25.3831 28.5997 16.9851 37.0137C16.3991 37.5997 15.4491 37.5997 14.8631 37.0137C14.2781 36.4267 14.2781 35.4747 14.8631 34.8887C19.4981 30.2447 25.6611 27.6857 32.2151 27.6857H32.2191C38.7731 27.6877 44.9351 30.2457 49.5691 34.8887C50.1541 35.4747 50.1541 36.4267 49.5691 37.0137C49.2761 37.3067 48.8921 37.4537 48.5081 37.4537ZM42.497 41.9727C42.79 42.2667 43.174 42.4127 43.558 42.4127C43.942 42.4127 44.326 42.2667 44.619 41.9727C45.204 41.3857 45.204 40.4337 44.619 39.8477C41.305 36.5277 36.901 34.6997 32.216 34.6997C27.532 34.6997 23.127 36.5277 19.814 39.8477C19.228 40.4337 19.228 41.3857 19.814 41.9727C20.4 42.5587 21.349 42.5587 21.935 41.9727C24.682 39.2207 28.333 37.7047 32.216 37.7047C36.099 37.7047 39.75 39.2207 42.497 41.9727ZM32.2161 50.1472L28.0511 45.9752C30.5671 44.3042 33.8671 44.3042 36.3811 45.9752L32.2161 50.1472ZM31.1551 53.3342C31.4481 53.6282 31.8321 53.7752 32.2161 53.7752C32.6001 53.7752 32.9841 53.6282 33.2771 53.3342L39.6691 46.9302C40.2551 46.3432 40.2551 45.3932 39.6691 44.8052C35.5611 40.6902 28.8731 40.6882 24.7631 44.8052C24.4821 45.0872 24.3231 45.4692 24.3231 45.8682C24.3231 46.2662 24.4821 46.6492 24.7631 46.9302L31.1551 53.3342Z" fill="black"/>
</svg>

<svg xmlns="http://www.w3.org/2000/svg" width="64" height="64" fill="none" viewBox="0 0 64 64"><path fill="currentColor" fill-rule="evenodd" d="M31.875 3.099a.404.404 0 0 1 .52-.007l11.712 10.347a1.498 1.498 0 0 0 2.492-1.126v-2.89h5.752v10.622c0 .432.185.842.508 1.127l4.27 3.773.01.008a.4.4 0 0 1 .139.305v35.334a.405.405 0 0 1-.404.403H7.403A.404.404 0 0 1 7 60.592V25.258a.41.41 0 0 1 .147-.313zm-24.472 60.9h49.47a3.41 3.41 0 0 0 3.405-3.407V25.258c0-.987-.426-1.923-1.168-2.571l-3.76-3.32V7.92a1.5 1.5 0 0 0-1.5-1.502H45.1c-.828 0-1.5.673-1.5 1.502v1.062L34.37.83a3.414 3.414 0 0 0-4.472.007L5.17 22.684A3.4 3.4 0 0 0 4 25.258v35.334A3.41 3.41 0 0 0 7.403 64m41.105-26.545c-.384 0-.768-.147-1.06-.44-8.399-8.414-22.065-8.414-30.463 0a1.5 1.5 0 1 1-2.122-2.125c4.635-4.644 10.798-7.203 17.352-7.203h.004c6.554.002 12.716 2.56 17.35 7.203a1.506 1.506 0 0 1 0 2.125c-.293.293-.677.44-1.06.44m-6.011 4.519c.293.294.677.44 1.061.44s.768-.146 1.061-.44a1.506 1.506 0 0 0 0-2.125A17.4 17.4 0 0 0 32.216 34.7a17.4 17.4 0 0 0-12.402 5.148 1.504 1.504 0 0 0 0 2.125 1.5 1.5 0 0 0 2.121 0 14.43 14.43 0 0 1 10.281-4.268c3.883 0 7.534 1.516 10.281 4.268m-10.28 8.174-4.166-4.172a7.55 7.55 0 0 1 8.33 0zm-1.062 3.187a1.493 1.493 0 0 0 2.122 0l6.392-6.404a1.504 1.504 0 0 0 0-2.125c-4.108-4.115-10.796-4.117-14.906 0a1.507 1.507 0 0 0 0 2.125z" clip-rule="evenodd"/></svg>
